T: Buíoch
M: 6/8
L: 1/8
K: Bmin
|: B3 BAF | ABc BAF| E3 EFA | E3 EFA |
d3 f2a | baf afe | fed e2d |1 fed cBA :|2 fed cBc ||
|: d3 f z a | afe fed | A3 e z a | aba fed |
[1 G3 d z e | fed edc | A3 eAf | gfe fec :|
[2 B3 dBe | fed cBA | G3 def | afe fec | d2 ||
</html>
</html>
